X:1
T:The Shelter of God’s Love
T:The Shelter of God’s Love
T:William Howard Doane
T:Mary E. Brown, 1903
T:Public Domain Courtesy of the Cyber Hymnal™
C:William Howard Doane
Z:Public Domain
Z:Courtesy of the Cyber Hymnal™
%%score ( 1 2 ) ( 3 4 )
L:1/8
Q:1/4=100
M:4/4
K:C
V:1 treble 
V:2 treble 
V:3 bass 
V:4 bass 
V:1
 ([CE][DF]) | [EG]3 [EG] [FA][EG][^D^F][EG] | [CE]2 [EG]2 [Ec]3 [GB] | [GB]2 [FA]2 G2 [Ec]2 | %4
w: 1.~When *|on the wea- ry heart there|gent- ly dawns The|full- ness of His|
w: 2.~Safe *|in the sha- dow of His|might- y wings, He|hides us day by|
w: 3.~And *|when we each shall en- ter|death’s dark vale, Our|earth- ly race well|
 [DB]6 (AG) | [EG]3 [EG] [FA][EG][^D^F][EG] | [FA]2 [GB]2 [Gc]2 [Ge]2 | [Gd]3 [Dc] [GB]2 [^FA]2 | %8
w: love, Then *|with our spir- its tuned to|joy and praise, We|sing, “God rules a-|
w: day; In *|that sweet shel- ter we may|sweet- ly gain Cour-|age to tread life’s|
w: run, He’ll *|grant us faith and cour- age|still to say, “Dear|Lord, Thy will be|
 G6 ||"^Refrain" GG | [Ec]2 [Ge]3 [Fd][Ec][GB] | [GB]2 [FA]3 [FA][GB][FA] | %12
w: bove!”||||
w: way.|How He|loves us, the notes come|ring- ing, From all the|
w: done.”||||
 [FA]2 [EG]3 [EG][EA][EG] | [EG]2 [DF]4 [FA]2 | [EG]2 [Ge]3 [Fd][Ec][GB] | [Fd]2 [Fc]4 [GB][FA] | %16
w: ||||
w: faith- ful, His mer- cy|sing- ing; The|whole earth to Him is|bring- ing Prais- es|
w: ||||
 [EG]3 [Fd] [Ec]2 [FB]2 | [Ec]6 |] %18
w: ||
w: for His love and|care.|
w: ||
V:2
 x2 | x8 | x8 | x4 G2 x2 | x6 F2 | x8 | x8 | x8 | G6 || GG | x8 | x8 | x8 | x8 | x8 | x8 | x8 | %17
 x6 |] %18
V:3
 [C,G,]2 | [C,C]3 [C,C] [C,C][C,C][C,C][C,C] | [C,G,]2 [C,C]2 [C,G,]3 [E,C] | %3
 [F,C]2 [F,C]2 [E,C]2 [C,G,]2 | G,6 [G,B,]2 | [C,C]3 [C,C] [C,C][C,C][C,C][C,C] | %6
 [F,C]2 [F,D]2 [E,C]2 [C,C]2 | [D,B,]3 [D,A,] [D,D]2 [D,C]2 | [G,,B,]6 || G,G, | %10
 [C,G,]2 [C,C]3 [C,G,][C,G,][E,C] | [F,C]2 [F,C]3 [F,C][F,C][F,C] | %12
 [C,C]2 [C,C]3 [A,,^C][A,,C][^C,A,] | [D,A,]2 [D,A,]4 [G,,B,]2 | [C,C]2 [C,C]3 [C,G,][C,G,][E,C] | %15
 [F,A,]2 [F,A,]4 [F,C][F,C] | [G,C]3 [G,B,] [G,C]2 [G,,D]2 | [C,C]6 |] %18
V:4
 x2 | x8 | x8 | x8 | G,6 x2 | x8 | x8 | x8 | x6 || G,G, | x8 | x8 | x8 | x8 | x8 | x8 | x8 | x6 |] %18

